code/assets/clouds-top-border.svg

<svg width="375" height="26" viewBox="0 0 375 26" fill="none" xmlns="http://www.w3.org/2000/svg">
<mask id="mask0" mask-type="alpha" maskUnits="userSpaceOnUse" x="0" y="0" width="375" height="26">
<rect width="375" height="26" fill="#C4C4C4"/>
</mask>
<g mask="url(#mask0)">
<path fill-rule="evenodd" clip-rule="evenodd" d="M53 166C28.3082 166 6.40334 154.068 -7.26302 135.655C-40.2601 132.27 -66 104.391 -66 70.5C-66 34.3253 -36.6747 5 -0.5 5C13.8867 5 27.1901 9.63828 37.9963 17.501C42.8441 16.5167 47.8617 16 53 16C64.0355 16 74.5143 18.3834 83.9498 22.6635C92.2925 17.1861 102.274 14 113 14C123.901 14 134.034 17.2912 142.458 22.9342C147.865 19.1922 154.427 17 161.5 17C169.101 17 176.112 19.5318 181.733 23.7981C193.703 16.321 207.847 12 223 12C238.69 12 253.298 16.6325 265.53 24.6044C276.778 17.8705 289.937 14 304 14C314.284 14 324.085 16.0698 333.008 19.8157C344.305 10.5565 358.754 5 374.5 5C410.675 5 440 34.3253 440 70.5C440 106.675 410.675 136 374.5 136C370.652 136 366.882 135.668 363.216 135.032C349.493 152.66 328.071 164 304 164C290.598 164 278.017 160.485 267.129 154.326C254.579 162.952 239.379 168 223 168C185.993 168 155.006 142.228 147.006 107.654C140.119 113.421 131.744 117.471 122.541 119.144C111.41 146.62 84.4683 166 53 166Z" fill="white"/>
</g>
</svg>

<?xml version="1.0" encoding="utf-8"?>
<!-- Generator: Adobe Illustrator 24.3.0, SVG Export Plug-In . SVG Version: 6.00 Build 0)  -->
<svg version="1.1" id="Layer_1" xmlns="http://www.w3.org/2000/svg" xmlns:xlink="http://www.w3.org/1999/xlink" x="0px" y="0px"
	 viewBox="0 0 375 26" style="enable-background:new 0 0 375 26;" xml:space="preserve">
<style type="text/css">
	.st0{fill:#FFFFFF;}
</style>
<g id="Layer_1_copy">
	<g>
		<path class="st0" d="M53,166c-24.7,0-46.6-11.9-60.3-30.3c-33-3.4-58.7-31.3-58.7-65.2C-66,34.3-36.7,5-0.5,5
			C13.9,5,27.2,9.6,38,17.5c4.8-1,9.9-1.5,15-1.5c11,0,21.5,2.4,30.9,6.7c8.3-5.5,18.3-8.7,29.1-8.7c10.9,0,21,3.3,29.5,8.9
			c5.4-3.7,12-5.9,19-5.9c7.6,0,14.6,2.5,20.2,6.8c12-7.5,26.1-11.8,41.3-11.8c15.7,0,30.3,4.6,42.5,12.6
			C276.8,17.9,289.9,14,304,14c10.3,0,20.1,2.1,29,5.8C344.3,10.6,358.8,5,374.5,5C410.7,5,440,34.3,440,70.5S410.7,136,374.5,136
			c-3.8,0-7.6-0.3-11.3-1c-13.7,17.6-35.1,29-59.2,29c-13.4,0-26-3.5-36.9-9.7C254.6,163,239.4,168,223,168c-37,0-68-25.8-76-60.3
			c-6.9,5.8-15.3,9.8-24.5,11.5C111.4,146.6,84.5,166,53,166z"/>
	</g>
</g>
</svg>
